src/assets/icons/weeks,simple,35.svg

<svg width="48" height="48" viewBox="0 0 48 48" fill="none" xmlns="http://www.w3.org/2000/svg">
<rect opacity="0.2" x="5" y="5" width="38" height="38" rx="4" fill="black"/>
<path d="M5 13C5 9.22876 5 7.34315 6.17157 6.17157C7.34315 5 9.22876 5 13 5H35C38.7712 5 40.6569 5 41.8284 6.17157C43 7.34315 43 9.22876 43 13V15H5V13Z" fill="black"/>
<path d="M16.2219 38.2386C20.1424 38.2386 22.9464 36.0824 22.9379 33.0994C22.9464 30.9261 21.5657 29.375 19.0004 29.0511V28.9148C20.9521 28.5653 22.2987 27.1847 22.2901 25.2244C22.2987 22.4716 19.8867 20.3068 16.2731 20.3068C12.6935 20.3068 10.0004 22.4034 9.94922 25.4205H13.4862C13.5288 24.0909 14.7475 23.2301 16.256 23.2301C17.7475 23.2301 18.7447 24.1335 18.7362 25.446C18.7447 26.8182 17.5771 27.7472 15.8981 27.7472H14.2702V30.4574H15.8981C17.8754 30.4574 19.1112 31.446 19.1026 32.8523C19.1112 34.2415 17.918 35.196 16.2305 35.196C14.6026 35.196 13.3839 34.3438 13.3157 33.0653H9.59979C9.65945 36.1165 12.3867 38.2386 16.2219 38.2386ZM31.9656 38.2386C35.8519 38.2386 38.494 35.7074 38.4854 32.179C38.494 28.8381 36.1587 26.4347 33.0138 26.4347C31.4798 26.4347 30.1587 27.0739 29.5451 27.9347H29.4428L29.8945 23.5625H37.5224V20.5455H26.8519L26.0252 29.75L29.3065 30.3381C29.8434 29.6136 30.8832 29.1619 31.9144 29.1619C33.6701 29.1705 34.9315 30.4403 34.9315 32.2727C34.9315 34.0881 33.6957 35.3409 31.9656 35.3409C30.4996 35.3409 29.315 34.4205 29.2298 33.0653H25.6502C25.7184 36.0824 28.3519 38.2386 31.9656 38.2386Z" fill="black"/>
</svg>

<svg xmlns="http://www.w3.org/2000/svg" width="48" height="48" fill="none" viewBox="0 0 48 48">
  <rect width="38" height="38" x="5" y="5" fill="#000" opacity=".2" rx="4"/>
  <path fill="#000" d="M5 13c0-3.771 0-5.657 1.172-6.828C7.343 5 9.229 5 13 5h22c3.771 0 5.657 0 6.828 1.172C43 7.343 43 9.229 43 13v2H5v-2zM16.222 38.239c3.92 0 6.724-2.157 6.716-5.14.008-2.173-1.372-3.724-3.938-4.048v-.136c1.952-.35 3.299-1.73 3.29-3.69.009-2.753-2.403-4.918-6.017-4.918-3.58 0-6.273 2.096-6.324 5.114h3.537c.043-1.33 1.261-2.19 2.77-2.19 1.491 0 2.489.902 2.48 2.215.009 1.372-1.159 2.301-2.838 2.301H14.27v2.71h1.628c1.977 0 3.213.989 3.205 2.395.008 1.39-1.185 2.344-2.873 2.344-1.627 0-2.846-.852-2.914-2.13H9.6c.06 3.05 2.787 5.173 6.622 5.173zm15.744 0c3.886 0 6.528-2.532 6.52-6.06.008-3.34-2.327-5.744-5.472-5.744-1.534 0-2.855.639-3.469 1.5h-.102l.451-4.372h7.628v-3.017h-10.67l-.827 9.204 3.282.588c.536-.724 1.576-1.176 2.607-1.176 1.756.009 3.017 1.278 3.017 3.11 0 1.816-1.235 3.069-2.965 3.069-1.466 0-2.651-.92-2.736-2.276h-3.58c.068 3.017 2.702 5.174 6.316 5.174z"/>
</svg>
